src/ImageAssets/TopRightBubble.svg

<?xml version="1.0" encoding="UTF-8"?>
<svg width="502px" height="170px" viewBox="0 0 502 170" version="1.1" xmlns="http://www.w3.org/2000/svg" xmlns:xlink="http://www.w3.org/1999/xlink">
    <title>Group 6</title>
    <defs>
        <linearGradient x1="50%" y1="0%" x2="50%" y2="100%" id="linearGradient-1">
            <stop stop-color="#3E6E99" stop-opacity="0.446219918" offset="0%"></stop>
            <stop stop-color="#2A2231" stop-opacity="0" offset="100%"></stop>
        </linearGradient>
        <linearGradient x1="50%" y1="0%" x2="50%" y2="100%" id="linearGradient-2">
            <stop stop-color="#3E6E99" stop-opacity="0.446219918" offset="0%"></stop>
            <stop stop-color="#2A2231" stop-opacity="0" offset="100%"></stop>
        </linearGradient>
        <linearGradient x1="50%" y1="0%" x2="50%" y2="100%" id="linearGradient-3">
            <stop stop-color="#3E6E99" stop-opacity="0.446219918" offset="0%"></stop>
            <stop stop-color="#2A2231" stop-opacity="0" offset="100%"></stop>
        </linearGradient>
        <linearGradient x1="50%" y1="0%" x2="50%" y2="100%" id="linearGradient-4">
            <stop stop-color="#3E6E99" stop-opacity="0.446219918" offset="0%"></stop>
            <stop stop-color="#2A2231" stop-opacity="0" offset="100%"></stop>
        </linearGradient>
        <linearGradient x1="50%" y1="0%" x2="50%" y2="100%" id="linearGradient-5">
            <stop stop-color="#3E6E99" stop-opacity="0.446219918" offset="0%"></stop>
            <stop stop-color="#2A2231" stop-opacity="0" offset="100%"></stop>
        </linearGradient>
    </defs>
    <g id="UI-Design" stroke="none" stroke-width="1" fill="none" fill-rule="evenodd" opacity="0.499190558">
        <g id="Bubbles-reworked" transform="translate(-938.000000, 0.000000)" fill-rule="nonzero">
            <g id="Group-6" transform="translate(938.000000, 0.000000)">
                <path d="M501.999889,0 L501.998889,169.839 L480.912966,169.839665 C445.904191,156.535293 421.024889,122.67022 421.024889,82.9942743 C421.024889,46.7087125 441.833895,15.2833544 472.16937,0.000734934152 L501.999889,0 Z" id="Combined-Shape" fill="url(#linearGradient-1)"></path>
                <path d="M355.404558,52.0662116 C355.404558,89.0478296 325.425034,119.027354 288.443416,119.027354 C251.461798,119.027354 221.482273,89.0478296 221.482273,52.0662116 C221.482273,31.0401176 231.173307,12.2774859 246.332391,0.00130182893 L330.554441,0.00130182893 C345.713524,12.2774859 355.404558,31.0401176 355.404558,52.0662116 Z" id="Combined-Shape" fill="url(#linearGradient-2)"></path>
                <circle id="Oval-Copy-2" fill="url(#linearGradient-3)" cx="408.619896" cy="100.73272" r="66.9611428"></circle>
                <path d="M66.9611428,77.4721154 C103.942761,77.4721154 133.922286,107.45164 133.922286,144.433258 C133.922286,153.047733 132.295574,161.282268 129.332574,168.846443 L4.58971179,168.846443 C1.6267114,161.282268 0,153.047733 0,144.433258 C0,107.45164 29.9795248,77.4721154 66.9611428,77.4721154 Z" id="Combined-Shape" fill="url(#linearGradient-4)"></path>
                <circle id="Oval" fill="url(#linearGradient-3)" cx="328.121518" cy="101.199521" r="45.8061095"></circle>
                <path d="M152.326171,101.080338 C177.624187,101.080338 198.132281,121.588432 198.132281,146.886447 C198.132281,154.843305 196.103498,162.326315 192.534999,168.846411 L112.117344,168.846411 C108.548844,162.326315 106.520062,154.843305 106.520062,146.886447 C106.520062,121.588432 127.028156,101.080338 152.326171,101.080338 Z" id="Combined-Shape" fill="url(#linearGradient-5)"></path>
            </g>
        </g>
    </g>
</svg>

<svg width="502" height="170" xmlns="http://www.w3.org/2000/svg"><defs><linearGradient x1="50%" y1="0%" x2="50%" y2="100%" id="a"><stop stop-color="#3E6E99" stop-opacity=".446" offset="0%"/><stop stop-color="#2A2231" stop-opacity="0" offset="100%"/></linearGradient><linearGradient x1="50%" y1="0%" x2="50%" y2="100%" id="b"><stop stop-color="#3E6E99" stop-opacity=".446" offset="0%"/><stop stop-color="#2A2231" stop-opacity="0" offset="100%"/></linearGradient><linearGradient x1="50%" y1="0%" x2="50%" y2="100%" id="c"><stop stop-color="#3E6E99" stop-opacity=".446" offset="0%"/><stop stop-color="#2A2231" stop-opacity="0" offset="100%"/></linearGradient><linearGradient x1="50%" y1="0%" x2="50%" y2="100%" id="d"><stop stop-color="#3E6E99" stop-opacity=".446" offset="0%"/><stop stop-color="#2A2231" stop-opacity="0" offset="100%"/></linearGradient><linearGradient x1="50%" y1="0%" x2="50%" y2="100%" id="e"><stop stop-color="#3E6E99" stop-opacity=".446" offset="0%"/><stop stop-color="#2A2231" stop-opacity="0" offset="100%"/></linearGradient></defs><g fill-rule="nonzero" fill="none" opacity=".499"><path d="m502 0-.001 169.839h-21.086c-35.009-13.304-59.888-47.169-59.888-86.845 0-36.285 20.809-67.71 51.144-82.993L502 0Z" fill="url(#a)"/><path d="M355.405 52.066c0 36.982-29.98 66.961-66.962 66.961-36.981 0-66.96-29.98-66.96-66.96 0-21.027 9.69-39.79 24.85-52.066h84.221c15.16 12.276 24.85 31.04 24.85 52.065Z" fill="url(#b)"/><circle fill="url(#c)" cx="408.62" cy="100.733" r="66.961"/><path d="M66.961 77.472c36.982 0 66.961 29.98 66.961 66.961a66.79 66.79 0 0 1-4.59 24.413H4.59A66.79 66.79 0 0 1 0 144.433c0-36.981 29.98-66.96 66.961-66.96Z" fill="url(#d)"/><circle fill="url(#c)" cx="328.122" cy="101.2" r="45.806"/><path d="M152.326 101.08c25.298 0 45.806 20.508 45.806 45.806 0 7.957-2.029 15.44-5.597 21.96h-80.418a45.601 45.601 0 0 1-5.597-21.96c0-25.298 20.508-45.806 45.806-45.806Z" fill="url(#e)"/></g></svg>
